static/images/past-sponsors/sentry.svg

<svg fill="none" height="60" viewBox="0 0 301 60" width="301" xmlns="http://www.w3.org/2000/svg"><path d="m73.4941 8.36759c-.4507-.74787-1.0869-1.36655-1.8471-1.79604-.7602-.42948-1.6186-.65517-2.4917-.65517s-1.7314.22569-2.4916.65517c-.7602.42949-1.3965 1.04817-1.8471 1.79604l-7.1372 12.22441c5.4525 2.7222 10.0981 6.8233 13.4756 11.8962 3.3774 5.0728 5.3692 10.9409 5.7775 17.0215h-5.0112c-.4076-5.2123-2.1691-10.2277-5.1103-14.5501-2.9412-4.3223-6.9601-7.8018-11.659-10.094l-6.6057 11.4218c2.6416 1.1847 4.9429 3.0145 6.6923 5.3212 1.7495 2.3067 2.8909 5.0162 3.3193 7.8794h-11.5085c-.1364-.0097-.2684-.0531-.3839-.1265s-.2109-.1744-.2776-.2938c-.0667-.1195-.1027-.2537-.1046-.3905s.0303-.2719.0936-.3932l3.189-5.4234c-1.0804-.9015-2.3152-1.5997-3.6445-2.0609l-3.1565 5.4234c-.3286.5636-.5419 1.1869-.6275 1.8337-.0857.6468-.042 1.3041.1286 1.9339.1705.6297.4645 1.2193.8649 1.7344.4003.5152.899.9457 1.4672 1.2664.7485.4218 1.5922.6458 2.4513.6508h15.7605c.2927-3.6119-.3523-7.2382-1.8726-10.5277-1.5202-3.2895-3.8642-6.1306-6.8049-8.2482l2.5057-4.3387c3.7111 2.5489 6.6935 6.0215 8.6528 10.0751 1.9592 4.0535 2.8276 8.5479 2.5194 13.0395h13.3525c.3109-6.8042-1.1693-13.5709-4.2929-19.6238-3.1235-6.053-7.7809-11.1801-13.5068-14.8691l5.0655-8.6775c.1128-.1891.2959-.326.5092-.3809.2133-.0548.4396-.0232.6297.088.5749.3146 22.0082 37.7145 22.4096 38.1484.0707.1267.1067.2699.1043.4151-.0024.1451-.0431.2871-.118.4114-.0748.1244-.1812.2268-.3083.2969s-.2705.1054-.4156.1023h-5.1631c.0651 1.3811.0651 2.7587 0 4.1326h5.1848c.6584.0043 1.3111-.122 1.9203-.3716.6092-.2497 1.1629-.6176 1.6289-1.0827.4661-.465.8353-1.0179 1.0862-1.6266.251-.6087.3787-1.2611.3758-1.9195.0007-.8696-.2315-1.7235-.6725-2.4731zm103.3919 28.22351-16.01-20.6741h-3.991v27.7137h4.045v-21.2381l16.466 21.2381h3.536v-27.7137h-4.046zm-40.318-5.1414h14.351v-3.6012h-14.361v-8.3412h16.194v-3.6012h-20.316v27.7246h20.522v-3.6012h-16.4zm-16.877-3.5144c-5.586-1.345-7.148-2.408-7.148-4.9895 0-2.3213 2.05-3.8941 5.109-3.8941 2.785.0816 5.472 1.0507 7.668 2.766l2.17-3.0697c-2.781-2.1797-6.23-3.3295-9.763-3.254-5.488 0-9.317 3.254-9.317 7.8856 0 4.9896 3.254 6.7142 9.176 8.1569 5.272 1.2148 6.888 2.3429 6.888 4.8702s-2.169 4.0893-5.521 4.0893c-3.337-.0153-6.547-1.2764-9.003-3.5361l-2.44 2.9178c3.145 2.7022 7.156 4.1843 11.302 4.176 5.944 0 9.762-3.1998 9.762-8.146-.032-4.1868-2.505-6.4321-8.883-7.9724zm134.62-12.0183-8.341 13.0162-8.287-13.0162h-4.838l10.945 16.7584v10.9661h4.165v-11.0963l11.02-16.6282zm-70.103 3.753h9.079v23.9715h4.165v-23.9715h9.079v-3.753h-22.312zm41.587 13.1464c4.187-1.1606 6.508-4.0893 6.508-8.2762 0-5.3258-3.894-8.6774-10.175-8.6774h-12.322v27.757h4.122v-9.9574h6.996l7.029 9.9791h4.816l-7.593-10.6516zm-11.878-2.7117v-10.5215h7.778c4.056 0 6.377 1.9199 6.377 5.2499s-2.483 5.2716-6.334 5.2716z" fill="#362d59"/></svg>

<svg width="301" height="60" viewBox="0 0 301 60" fill="none" xmlns="http://www.w3.org/2000/svg">
<path d="M73.4941 8.36759C73.0434 7.61972 72.4072 7.00104 71.647 6.57155C70.8868 6.14207 70.0284 5.91638 69.1553 5.91638C68.2822 5.91638 67.4239 6.14207 66.6637 6.57155C65.9035 7.00104 65.2672 7.61972 64.8166 8.36759L57.6794 20.592C63.1319 23.3142 67.7775 27.4153 71.155 32.4882C74.5324 37.561 76.5242 43.4291 76.9325 49.5097H71.9213C71.5137 44.2974 69.7522 39.282 66.811 34.9596C63.8698 30.6373 59.8509 27.1578 55.152 24.8656L48.5463 36.2874C51.1879 37.4721 53.4892 39.3019 55.2386 41.6086C56.9881 43.9153 58.1295 46.6248 58.5579 49.488H47.0494C46.913 49.4783 46.781 49.4349 46.6655 49.3615C46.55 49.2881 46.4546 49.1871 46.3879 49.0677C46.3212 48.9482 46.2852 48.814 46.2833 48.6772C46.2814 48.5404 46.3136 48.4053 46.3769 48.284L49.5659 42.8606C48.4855 41.9591 47.2507 41.2609 45.9214 40.7997L42.7649 46.2231C42.4363 46.7867 42.223 47.41 42.1374 48.0568C42.0517 48.7036 42.0954 49.3609 42.266 49.9907C42.4365 50.6204 42.7305 51.21 43.1309 51.7251C43.5312 52.2403 44.0299 52.6708 44.5981 52.9915C45.3466 53.4133 46.1903 53.6373 47.0494 53.6423H62.8099C63.1026 50.0304 62.4576 46.4041 60.9373 43.1146C59.4171 39.8251 57.0731 36.984 54.1324 34.8664L56.6381 30.5277C60.3492 33.0766 63.3316 36.5492 65.2909 40.6028C67.2501 44.6563 68.1185 49.1507 67.8103 53.6423H81.1628C81.4737 46.8381 79.9935 40.0714 76.8699 34.0185C73.7464 27.9655 69.089 22.8384 63.3631 19.1494L68.4286 10.4719C68.5414 10.2828 68.7245 10.1459 68.9378 10.091C69.1511 10.0362 69.3774 10.0678 69.5675 10.179C70.1424 10.4936 91.5757 47.8935 91.9771 48.3274C92.0478 48.4541 92.0838 48.5973 92.0814 48.7425C92.079 48.8876 92.0383 49.0296 91.9634 49.1539C91.8886 49.2783 91.7822 49.3807 91.6551 49.4508C91.528 49.5209 91.3846 49.5562 91.2395 49.5531H86.0764C86.1415 50.9342 86.1415 52.3118 86.0764 53.6857H91.2612C91.9196 53.69 92.5723 53.5637 93.1815 53.3141C93.7907 53.0644 94.3444 52.6965 94.8104 52.2314C95.2765 51.7664 95.6457 51.2135 95.8966 50.6048C96.1476 49.9961 96.2753 49.3437 96.2724 48.6853C96.2731 47.8157 96.0409 46.9618 95.5999 46.2122L73.4941 8.36759ZM176.886 36.5911L160.876 15.917H156.885V43.6307H160.93V22.3926L177.396 43.6307H180.932V15.917H176.886V36.5911ZM136.568 31.4497H150.919V27.8485H136.558V19.5073H152.752V15.9061H132.436V43.6307H152.958V40.0295H136.558L136.568 31.4497ZM119.691 27.9353C114.105 26.5903 112.543 25.5273 112.543 22.9458C112.543 20.6245 114.593 19.0517 117.652 19.0517C120.437 19.1333 123.124 20.1024 125.32 21.8177L127.49 18.748C124.709 16.5683 121.26 15.4185 117.727 15.494C112.239 15.494 108.41 18.748 108.41 23.3796C108.41 28.3692 111.664 30.0938 117.586 31.5365C122.858 32.7513 124.474 33.8794 124.474 36.4067C124.474 38.934 122.305 40.496 118.953 40.496C115.616 40.4807 112.406 39.2196 109.95 36.9599L107.51 39.8777C110.655 42.5799 114.666 44.062 118.812 44.0537C124.756 44.0537 128.574 40.8539 128.574 35.9077C128.542 31.7209 126.069 29.4756 119.691 27.9353ZM254.311 15.917L245.97 28.9332L237.683 15.917H232.845L243.79 32.6754V43.6415H247.955V32.5452L258.975 15.917H254.311ZM184.208 19.67H193.287V43.6415H197.452V19.67H206.531V15.917H184.219L184.208 19.67ZM225.795 32.8164C229.982 31.6558 232.303 28.7271 232.303 24.5402C232.303 19.2144 228.409 15.8628 222.128 15.8628H209.806V43.6198H213.928V33.6624H220.924L227.953 43.6415H232.769L225.176 32.9899L225.795 32.8164ZM213.917 30.1047V19.5832H221.695C225.751 19.5832 228.072 21.5031 228.072 24.8331C228.072 28.1631 225.589 30.1047 221.738 30.1047H213.917Z" fill="#362D59"/>
</svg>
